X: 1
T:Granl\aa{}ten
R:Polska
C:e. Per Myhr
O:Sweden
A:H\"arjedalen
N:See also the Hoven Droven version
D:H\"arjedalespipen - Ale M\"oller etc.
M:3/4
K:D
Ac d2 ef |de c4| f2 (3{g}fef g2| dc A4 ::
F>G A2 Bc| (3cBA A2 F2 | FG E4| \
D>F A2 Ac| (3BA^G A2 Bc| d2 d4:|
